!!!!SEGMENT: pl-sa--439-a-viii-79_fischietti-giovanni--lauda-sion-salvatorem.krn
!!!cenid: 17xx:1437
!!!COM: Fischietti, Giovanni
!!!COM-rismid: pe30004622
!!!CDT: 1692-1743
!!!CNT: Italian
!!!OTL: Lauda Sion Salvatorem
!!!PDT:
!!!AGN:
!!!SMS-siglum: PL-SA
!!!SMS-shelfmark: 439/A VIII 79
!!!SMS-shelfwork: W
!!!SMS-variant:
!!!SMS-altvar:
!!!NIFC-rismid: 1001030049
!!!URL-scan: http://bc.bdsandomierz.pl/dlibra/publication/1744/edition/1712/content
!!!ONB-nifc:
!!!key:
**kern	**kern	**kern	**dynam	**kern	**kern	**text
*part5	*part4	*part3	*part3	*part2	*part1	*part1
*staff5	*staff4	*staff3	*	*staff2	*staff1	*staff1
*Iempty	*Ivioln	*Ivioln	*	*Ivioln	*Ialto	*
*I"Fundamento	*I"Violino 3tio	*I"Violino 2do	*	*I"Violino Primo	*I"Alto....Solo	*
*I'b	*I'vl 3	*I'vl 2	*	*I'vl 1	*I'A	*
*group3	*group2	*group2	*	*group2	*group1	*
*clefF4	*clefG2	*clefG2	*	*clefG2	*clefC3	*
*k[b-e-a-]	*k[b-e-a-]	*k[b-e-a-]	*	*k[b-e-a-]	*k[b-e-a-]	*
*c:	*c:	*c:	*	*c:	*c:	*
*M3/8	*M3/8	*M3/8	*	*M3/8	*M3/8	*
=1	=1	=1	=1	=1	=1	=1
!	!	!	!	!	!LO:TX:t=P:problem=wg. pauz 9 pustych taktów, klamra łukowa	!
!	!	!	!	!	!LO:TX:a:t=10	!
!LO:TX:t=P:problem=all\right&colon; global	!	!LO:TX:a:t=Lente	!	!LO:TX:a:t=Lente,	!LO:TX:a:t=Lente	!
!LO:TX:t=P:problem=tylko znaki A- E-	!LO:TX:t=P:problem=kolejność znaków ee- b- a-	!LO:TX:t=P:problem=kolejność znaków ee- b- a-	!	!LO:TX:t=P:problem=kolejność znaków ee- b- a-	!LO:TX:t=P:problem=kolejność znaków B- a- e-	!
!	!	!	!	!	!LO:N:vis=00	!
16E-\LL	16e-/LL	16g/LL	.	16g/LL	1.r	.
16E-\	16f/	16a-/	.	16a-/	.	.
16E-\	16e-/	16g/	.	16g/	.	.
16E-\	16f/	16a-/	.	16a-/	.	.
16E-\	16g/	16b-/	.	16b-/	.	.
16E-\JJ	16f/JJ	16a-/JJ	.	16a-/JJ	.	.
=2	=2	=2	=2	=2	=2	=2
!	!	!LO:TX:t=P:problem=all\right&colon; global	!	!LO:TX:t=P:problem=all\right&colon; global	!	!
16E-\LL	16e-/LL	16g\LL	.	16g\LL	.	.
16E-\	16cc/	16ee-\	.	16ee-\	.	.
16E-\	16b-/	16dd\	.	16dd\	.	.
16E-\	16a-/	16cc\	.	16cc\	.	.
16E-\	16g/	16b-\	.	16b-\	.	.
16E-\JJ	16f/JJ	16a-\JJ	.	16a-\JJ	.	.
=3	=3	=3	=3	=3	=3	=3
8E-\L	8e-/L	16.g/LL	.	16.bb-\LL	.	.
.	.	32a-/JJk	.	32ccc\JJk	.	.
8F\	8e-/	4f/	.	4aa-\	.	.
8BB-\J	8d/J	.	.	.	.	.
=4	=4	=4	=4	=4	=4	=4
8E-\L	16e-/LL	16f/LL	.	4gg\	.	.
.	16e-/	16g/	.	.	.	.
8E-\	16d/	16f/	.	.	.	.
.	16e-/	16g/	.	.	.	.
8A-\J	16f/	16a-/	.	8r	.	.
.	16e-/JJ	16g/JJ	.	.	.	.
=5	=5	=5	=5	=5	=5	=5
!	!	!	!	!	!LO:N:vis=00	!
8B-\L	16.d/LL	16.f/LL	.	16.ff\LL	1.r	.
.	32e-/JJk	32b-/JJk	.	32gg\JJk	.	.
8c\	4c/	8b-/L	.	4ee-\	.	.
8F\J	.	8an/J	.	.	.	.
=6	=6	=6	=6	=6	=6	=6
!LO:TX:t=P:problem=mixed beam	!	!	!	!LO:TX:t=P:problem=mixed beam	!	!
16BB-/LL	16B-/LL	16b-/LL	.	16dd\LL	.	.
16B-\	16B-/	16d/	.	16d/	.	.
16A-X\	16c/	16e-/	.	16e-/	.	.
16A-\	16d/	16f/	.	16f/	.	.
16A-\	16e-/	16g/	.	16g/	.	.
16A-\JJ	16f/JJ	16a-X/JJ	.	16a-X/JJ	.	.
=7	=7	=7	=7	=7	=7	=7
16G\LL	16g/LL	16b-/LL	.	16b-\LL	.	.
16G\	16e-/	16g/	.	16g\	.	.
16F\	16f/	16a-/	.	16a-\	.	.
16F\	16g/	16b-/	.	16b-\	.	.
16F\	16a-/	16cc/	.	16cc\	.	.
16F\JJ	16b-/JJ	16dd/JJ	.	16dd\JJ	.	.
!	!	!LO:LB:g=original	!	!	!	!
=8	=8	=8	=8	=8	=8	=8
!LO:TX:t=P:problem=mixed beam	!	!	!	!	!	!
8E-\L	4B-/	16.ee-\LL	.	16.gg\LL	.	.
.	.	32ff\JJk	.	32aa-\JJk	.	.
8B-\	.	4dd\	.	4ff\	.	.
8BB-/J	8B-/	.	.	.	.	.
!LO:LB:g=original	!	!	!	!LO:LB:g=original	!	!
=9	=9	=9	=9	=9	=9	=9
4E-\	4G/	16.ee-\LL	.	16.ee-\LL	4.r	.
.	.	32b-\JJk	.	32b-\JJk	.	.
.	.	8e-/	.	8g/	.	.
8r	8r	8r	.	8r	.	.
!	!LO:LB:g=original	!	!	!	!	!
=10	=10	=10	=10	=10	=10	=10
!	!	!	!LO:DY:a:t=Pia.	!	!LO:TX:t=P:problem=all\right&colon; global	!
16E-\LL	16e-/LL	16g\LL	p	8ee-\	8e-\	Lau-
16E-\	16f/	16a-\	.	.	.	.
16E-\	16e-/	16g\	.	4ee-\	4e-\	-da
16E-\	16f/	16a-\	.	.	.	.
16E-\	16g/	16b-\	.	.	.	.
16E-\JJ	16f/JJ	16a-\JJ	.	.	.	.
=11	=11	=11	=11	=11	=11	=11
!	!LO:TX:t=P:problem=all\right&colon; global	!	!	!	!	!
16E-\LL	16e-\LL	16g\LL	.	8bb-\	8b-\	Si-
16E-\	16cc\	16ee-\	.	.	.	.
16E-\	16b-\	16dd\	.	4bb-\	4b-\	-on
16E-\	16a-\	16cc\	.	.	.	.
16E-\	16g\	16b-\	.	.	.	.
16E-\JJ	16f\JJ	16a-\JJ	.	.	.	.
=12	=12	=12	=12	=12	=12	=12
8E-\L	8e-/L	16.g/LL	.	16.bb-\LL	(16.b-\LL	Sal-
.	.	32a-/JJk	.	32ccc\JJk	32cc\JJk	.
8F\	8e-/	4f/	.	4aa-\	8b-\)	.
8BB-\J	8d/J	.	.	.	8a-\	-va-
=13	=13	=13	=13	=13	=13	=13
16E-\LL	16e-/LL	16e-/LL	.	16gg\LL	(16g\LL	-to-
16E-\	16e-/	16g/	.	16ff\J	16f\JJ)	.
16E-\	16e-/	16g/	.	8ee-\J	8e-\	-rem
16E-\	16e-/	16g/	.	.	.	.
16E-\	16e-/	16g/	.	8r	8r	.
16E-\JJ	16e-/JJ	16g/JJ	.	.	.	.
=14	=14	=14	=14	=14	=14	=14
16C/LL	16c/LL	16g/LL	.	16ee-\LL	8g\	Lau-
16C/	16c/	16g/	.	16ee-\	.	.
16C/	16c/	16an/	.	16ee-\	4an\	-da
16C/	16c/	16a/	.	16ee-\	.	.
16C/	16c/	16a/	.	16ee-\	.	.
16C/JJ	16c/JJ	16a/JJ	.	16ee-\JJ	.	.
=15	=15	=15	=15	=15	=15	=15
16BB-/LL	16B-/LL	16b-\LL	.	4dd\	(16.b-\LL	Du-
16BB-/	16B-/	16b-\	.	.	.	.
!	!	!	!	!	!LO:SIC:v:s=an	!
.	.	.	.	.	32a-\JJk)	.
16BB-/	16B-/	16b-\	.	.	8b-\	-cem
16BB-/	16B-/	16b-\	.	.	.	.
16BB-/	16B-/	16b-\	.	8r	8r	.
16BB-/JJ	16B-/JJ	16b-\JJ	.	.	.	.
=16	=16	=16	=16	=16	=16	=16
16BB-/LL	16B-/LL	16b-/LL	.	16cc\LL	4.cc\	Lau-
16BB-/	16B-/	16b-/	.	16cc\	.	.
!	!	!LO:LB:g=original	!	!	!	!
16BB-/	16B-/	16a-X/	.	16cc\	.	.
16BB-/	16B-/	16a-/	.	16cc\	.	.
16BB-/	16B-/	16a-/	.	16cc\	.	.
16BB-/JJ	16B-/JJ	16a-/JJ	.	16cc\JJ	.	.
!LO:LB:g=original	!	!	!	!	!LO:LB:g=original	!
=17	=17	=17	=17	=17	=17	=17
16B-\LL	16B-/LL	16a-/LL	.	16b-/LL	4.b-\	-da
16B-\	16B-/	16a-/	.	16b-/	.	.
16B-\	16B-/	16g/	.	16b-/	.	.
16B-\	16B-/	16g/	.	16b-/	.	.
16B-\	16B-/	16g/	.	16b-/	.	.
16B-\JJ	16B-/JJ	16g/JJ	.	16b-/JJ	.	.
!	!	!	!	!LO:LB:g=original	!	!
=18	=18	=18	=18	=18	=18	=18
16B-\LL	16B-/LL	16g/LL	.	16b-\LL	8b-\L	Lau-
16B-\	16B-/	16g/	.	16b-\	.	.
16B-\	16B-/	16g/	.	16b-\	8ee-\J	.
16B-\	16B-/JJ	16g/	.	16b-\	.	.
!	!LO:LB:g=original	!	!	!	!	!
16B-\	16B-/LL	16g/	.	16b-\	8b-\	-da
16B-\JJ	16B-/JJ	16g/JJ	.	16b-\JJ	.	.
=19	=19	=19	=19	=19	=19	=19
16B-\LL	16B-/LL	16g/LL	.	16a-/LL	16a-\LL	Du-
16B-\	16B-/	16g/	.	16a-/	16g\JJ	.
16B-\	16B-/	16f/	.	16a-/	8.a-T\	-cem
16B-\	16B-/	16f/	.	16a-/	.	.
16B-\	16B-/	16f/	.	16a-/	.	.
16B-\JJ	16B-/JJ	16f/JJ	.	16a-/JJ	16ryy	.
=20	=20	=20	=20	=20	=20	=20
16BB-/LL	16B-/LL	16f/LL	.	16a-/LL	(8a-\L	et
16BB-/	16B-/	16f/	.	16a-/	.	.
16BB-/	16B-/	16f/	.	16a-/	8ff\J)	.
16BB-/	16B-/	16f/	.	16a-/	.	.
16BB-/	16B-/	16f/	.	16a-/	8a-\|	Pa-
16BB-/JJ	16B-/JJ	16f/JJ	.	16a-/JJ	.	.
=21	=21	=21	=21	=21	=21	=21
16BB-/LL	16B-/LL	16f/LL	.	16g/LL	(16g\LL	-sto-
16BB-/	16B-/	16f/	.	16g/	16f\JJ)	.
16BB-/	16B-/	16e-/	.	16g/	4g\	-rem
16BB-/	16B-/	16e-/	.	16g/	.	.
16BB-/	16B-/	16e-/	.	16g/	.	.
16BB-/JJ	16B-/JJ	16e-/JJ	.	16g/JJ	.	.
=22	=22	=22	=22	=22	=22	=22
16BB-/LL	16B-/LL	16e-/LL	.	16g/LL	(8g\L	et
16BB-/	16B-/	16e-/	.	16g/	.	.
16BB-/	16B-/	16e-/	.	16g/	8ee-\J)	.
16BB-/	16B-/	16e-/	.	16g/	.	.
16BB-/	16B-/	16e-/	.	16g/	8g\|	Pa-
16BB-/JJ	16B-/JJ	16e-/JJ	.	16g/JJ	.	.
=23	=23	=23	=23	=23	=23	=23
16BB-/LL	16B-/LL	16e-/LL	.	16f/LL	(16f\LL	-sto-
16BB-/	16B-/	16e-/	.	16f/	16e-\JJ)	.
16BB-/	16B-/	16d/	.	16f/	4f\	-rem
16BB-/	16B-/	16d/	.	16f/	.	.
16BB-/	16B-/	16d/	.	16f/	.	.
16BB-/JJ	16B-/JJ	16d/JJ	.	16f/JJ	.	.
=24	=24	=24	=24	=24	=24	=24
16D\LL	16d/LL	16B-/LL	.	16f/LL	8b-\	Lau-
16D\	16d/	16B-/	.	16f/	.	.
16D\	16d/	16B-/	.	16f/	4f\	-da
16D\	16d/	16B-/	.	16f/	.	.
16D\	16d/	16B-/	.	16f/	.	.
16D\JJ	16d/JJ	16B-/JJ	.	16f/JJ	.	.
!	!	!LO:LB:g=original	!	!	!	!
=25	=25	=25	=25	=25	=25	=25
4E-\	4e-/	8B-/L	.	8g/L	8g\L	Du-
.	.	8c/	.	8an/	8an\J	.
!	!	!	!	!	!LO:LB:g=original	!
8D\	8d/	8d/J	.	8b-/J	8b-\	-cem
!LO:LB:g=original	!	!	!	!	!	!
=26	=26	=26	=26	=26	=26	=26
!LO:TX:t=P:problem=mixed beam	!	!	!	!	!	!
8E-\L	8e-/L	8g/	.	16.cc\LL	16.cc\LL	Pa-
.	.	.	.	32dd\JJk	32dd\JJk	.
8F\	8f/	4c/	.	4an/	8.an\	-sto-
8FF/J	8f/J	.	.	.	.	.
.	.	.	.	.	16ryy	.
!	!	!	!	!LO:LB:g=original	!	!
=27	=27	=27	=27	=27	=27	=27
16BB-/LL	16B-/LL	16d/LL	.	4b-\	4b-\	-rem
16BB-/	16g/	16b-/	.	.	.	.
!	!	!LO:TX:a:t=♮	!	!	!	!
16BB-/	16f/	16any/	.	.	.	.
16BB-/	16e-/	16g/	.	.	.	.
16BB-/	16d/	16f/	.	8r	8r	.
16BB-/JJ	16c/JJ	16e-/JJ	.	.	.	.
!	!LO:LB:g=original	!	!	!	!	!
=28	=28	=28	=28	=28	=28	=28
8BB-/L	8B-/L	16.d/LL	.	16.dd\LL	2.r	.
.	.	32e-/JJk	.	32ee-\JJk	.	.
8F/	8f/	8f/L	.	4cc\	.	.
8FF/J	8f/J	8e-/J	.	.	.	.
=29	=29	=29	=29	=29	=29	=29
4.BB-/	4B-/	4d/	.	16b-/LL	.	.
.	.	.	.	16f/J	.	.
.	.	.	.	8B-/J	.	.
.	8r	8r	.	8r	.	.
=30	=30	=30	=30	=30	=30	=30
16BB-/LL	16B-/LL	16d/LL	.	8b-\	8B-/	Lau-
16BB-/	16c/	16e-/	.	.	.	.
16BB-/	16B-/	16d/	.	4b-\	4B-/	-da
16BB-/	16c/	16e-/	.	.	.	.
16BB-/	16d/	16f/	.	.	.	.
16BB-/JJ	16c/JJ	16e-/JJ	.	.	.	.
=31	=31	=31	=31	=31	=31	=31
16BB-/LL	16B-/LL	16d/LL	.	8ff\	8f\	Si-
16BB-/	16g/	16b-/	.	.	.	.
16BB-/	16f/	16an/	.	4ff\	4f\	-on
16BB-/	16e-/	16g/	.	.	.	.
16BB-/	16d/	16f/	.	.	.	.
16BB-/JJ	16c/JJ	16e-/JJ	.	.	.	.
=32	=32	=32	=32	=32	=32	=32
8BB-/L	16.B-/LL	16d/LL	.	16.ff\LL	16.f\LL	Sal-
.	.	16b-/JJ	.	.	.	.
.	32c/JJk	.	.	32bb-\JJk	(32b-\JJk	.
8C/	4An/	8b-/L	.	4ee-\	8e-\)	.
8FF/J	.	8an/J	.	.	8e-\	-va-
=33	=33	=33	=33	=33	=33	=33
!LO:TX:t=P:problem=mixed beam	!	!	!	!	!	!
8.BB-/L	16B-/LL	16b-/LL	.	16dd\LL	(8.d\L	-to-
.	16d/	16f/	.	16cc\J	.	.
.	16e-/	16g/	.	8b-\J	.	.
16A-X\L	16d/	16f/	.	.	16c\Jk)	.
16G\	16e-/	16g/	.	8r	8B-/	-rem
16F\JJ	16f/JJ	16a-X/JJ	.	.	.	.
=34	=34	=34	=34	=34	=34	=34
16E-\LL	16g/LL	16b-/LL	.	8ee-\	8e-\	Lau-
16E-\	16f/	16a-X/JJ	.	.	.	.
16E-\	16g/	16g/LL	.	4ee-\	4e-\	-da
16E-\	16f/	16a-/JJ	.	.	.	.
!	!	!LO:LB:g=original	!	!	!	!
16E-\	16e-/	16g/LL	.	.	.	.
16E-\JJ	16f/JJ	16a-/JJ	.	.	.	.
=35	=35	=35	=35	=35	=35	=35
16E-\LL	16e-\LL	16g\LL	.	8bb-\	8b-\	Si-
16E-\	16cc\	16ee-\	.	.	.	.
!	!	!	!	!	!LO:LB:g=original	!
16E-\	16b-\	16dd\	.	4bb-\	4b-\	-on
16E-\	16a-\	16cc\	.	.	.	.
16E-\	16g\	16b-\	.	.	.	.
16E-\JJ	16f\JJ	16a-\JJ	.	.	.	.
!LO:LB:g=original	!	!	!	!	!	!
=36	=36	=36	=36	=36	=36	=36
8E-\L	8e-/L	16.g/LL	.	16.bb-\LL	(16.b-\LL	Sal-
.	.	32a-/JJk	.	32ccc\JJk	(32ee-\JJk)	.
8F\	8e-/	4f/	.	4aa-\	8.a-\)	.
8BB-\J	8d/J	.	.	.	.	.
.	.	.	.	.	16a-\	-va-
=37	=37	=37	=37	=37	=37	=37
16E-\LL	16e-/LL	16e-/LL	.	16.gg\LL	16.g\LL	-to-
16E-\	16e-/	16g/	.	.	.	.
.	.	.	.	32ff\JJk	32f\JJk	.
!	!	!	!	!LO:LB:g=original	!	!
!	!	!	!	!LO:N:vis=4	!	!
16E-\	16e-/	16g/	.	8ee-\	8e-\	-rem
16E-\	16e-/	16g/	.	.	.	.
16E-\	16e-/	16g/	.	8r	8r	.
16E-\JJ	16e-/JJ	16g/JJ	.	.	.	.
!	!LO:LB:g=original	!	!	!	!	!
=38	=38	=38	=38	=38	=38	=38
16GG/LL	16G/LL	16B-/LL	.	8bb-\	8b-\	Lau-
16GG/	16G/	16B-/	.	.	.	.
16GG/	16G/	16B-/	.	4dd-X\	4d-X\	-da
16GG/	16G/	16B-/	.	.	.	.
16GG/	16G/	16B-/	.	.	.	.
16GG/JJ	16G/JJ	16B-/JJ	.	.	.	.
=39	=39	=39	=39	=39	=39	=39
16AA-/LL	16A-/LL	16c/LL	.	4.cc\	16c\LL	Di-
16AA-/	16A-/	16c/	.	.	16dn\JJ	.
16AA-/	16A-/	16c/	.	.	4e-\	-cem
16AA-/	16A-/	16c/	.	.	.	.
16AA-/	16A-/	16c/	.	.	.	.
16AA-/JJ	16A-/JJ	16c/JJ	.	.	.	.
=40	=40	=40	=40	=40	=40	=40
16AA-/LL	16A-/LL	16c/LL	.	4.ff\	(8cc\L	et
16AA-/	16A-/	16c/	.	.	.	.
16AA-/	16A-/	16c/	.	.	8a-X\)	.
16AA-/	16A-/	16c/	.	.	.	.
16AA-/	16A-/	16c/	.	.	8f\J|	Pa-
16AA-/JJ	16A-/JJ	16c/JJ	.	.	.	.
=41	=41	=41	=41	=41	=41	=41
16BB-/LL	16G/LL	16d/LL	.	4.ff\	16.d\LL	-sto-
16BB-/	16G/	16d/	.	.	.	.
.	.	.	.	.	32e-\JJk	.
16BB-/	16G/	16d/	.	.	4f\	-rem
16BB-/	16G/	16d/	.	.	.	.
16BB-/	16G/	16d/	.	.	.	.
16BB-/JJ	16G/JJ	16d/JJ	.	.	.	.
=42	=42	=42	=42	=42	=42	=42
16BB-/LL	16B-/LL	16d/LL	.	4.gg\	8dd\L	Lau-
16BB-/	16B-/	16d/	.	.	.	.
16BB-/	16B-/	16d/	.	.	8b-\J	.
16BB-/	16B-/	16d/	.	.	.	.
16BB-/	16B-/	16d/	.	.	8g\	-da
16BB-/JJ	16B-/JJ	16d/JJ	.	.	.	.
!	!	!	!	!	!LO:LB:g=original	!
=43	=43	=43	=43	=43	=43	=43
16C/LL	16B-/LL	16e-/LL	.	4.gg\	16e-\LL	Du-
16C/	16B-/	16e-/	.	.	16f\JJ	.
16C/	16c/	16e-/	.	.	4g\	-cem
16C/	16c/	16e-/JJ	.	.	.	.
!	!	!LO:LB:g=original	!	!	!	!
16C/	16c/	16g/LL	.	.	.	.
16C/JJ	16c/JJ	16g/JJ	.	.	.	.
=44	=44	=44	=44	=44	=44	=44
16C/LL	16c/LL	16e-/LL	.	4.aa-\	(8ee-\L	et
16C/	16c/	16e-/	.	.	.	.
16C/	16c/	16e-/	.	.	8cc\)	.
16C/	16c/	16e-/	.	.	.	.
16C/	16c/	16e-/	.	.	8a-\J|	Pa-
16C/JJ	16c/JJ	16e-/JJ	.	.	.	.
!LO:LB:g=original	!	!	!	!	!	!
=45	=45	=45	=45	=45	=45	=45
16D\LL	16d/LL	16f/LL	.	4.aa-\	16.f\LL	-sto-
16D\	16d/	16f/	.	.	.	.
.	.	.	.	.	32g\JJk	.
16D\	16d/	16f/	.	.	4a-\	-rem
16D\	16d/	16f/	.	.	.	.
16D\	16d/	16f/	.	.	.	.
16D\JJ	16d/JJ	16f/JJ	.	.	.	.
=46	=46	=46	=46	=46	=46	=46
16D\LL	16d/LL	16f/LL	.	4.bb-\	(8ff\L	Lau-
16D\	16d/	16f/	.	.	.	.
16D\	16d/	16f/	.	.	8dd\J)	.
16D\	16d/	16f/	.	.	.	.
16D\	16d/	16f/	.	.	8a-\|	-da
16D\JJ	16d/JJ	16f/JJ	.	.	.	.
!	!LO:LB:g=original	!	!	!	!	!
=47	=47	=47	=47	=47	=47	=47
16E-\LL	16e-/LL	16g/LL	.	4.bb-\	16.g\LL	Du-
16E-\	16e-/	16g/	.	.	.	.
.	.	.	.	.	32a-\JJk	.
16E-\	16e-/	16g/	.	.	4b-\	-cem
16E-\	16e-/	16g/	.	.	.	.
16E-\	16e-/	16g/	.	.	.	.
16E-\JJ	16e-/JJ	16g/JJ	.	.	.	.
=48	=48	=48	=48	=48	=48	=48
16AA-/LL	16A-/LL	16.aa-\LL	.	16.ccc\LL	16.cc\LL	et
16AA-/	16A-/	.	.	.	.	.
.	.	32gg\JJk	.	32bb-\JJk	(32b-\JJk	.
16AA-/	16A-/	8ff\L	.	8aa-\L	8a-\L)	Pa-
16AAn/	16A-/	.	.	.	.	.
16AA/	16An/	8ee-\J	.	8gg\J	8g\J|	.
16AA/JJ	16A/JJ	.	.	.	.	.
=49	=49	=49	=49	=49	=49	=49
16BB-/LL	16B-/LL	8ee-\L	.	8gg\L	8g\	-sto-
16BB-/	16B-/	.	.	.	.	.
16BB-/	16B-/	8dd\J	.	8ff\J	8f\	-rem
16BB-/	16B-/	.	.	.	.	.
16BB-/	16B-/	8r	.	8r	8r	.
16BB-/JJ	16B-/JJ	.	.	.	.	.
!	!	!	!	!LO:LB:g=original	!	!
=50	=50	=50	=50	=50	=50	=50
8BB-/L	8B-/L	8d/L	.	8ff\	8f\	In
8C/	8c/	8e-/	.	4aa-\	4a-X\	hy-
8D/J	8d/J	8f/J	.	.	.	.
!	!	!	!	!	!LO:LB:g=original	!
=51	=51	=51	=51	=51	=51	=51
8E-\L	8e-/L	8b-/L	.	8gg\L	8g\L	.
8F\	8f/	8a-/	.	8ff\	8f\J	.
8G\J	8g/J	8g/J	.	8ee-\J	8e-\	-mnis
=52	=52	=52	=52	=52	=52	=52
!LO:TX:t=P:problem=mixed beam	!	!LO:TX:b:t=Cito Vert	!	!	!	!
8A-\L	8a-/L	4.f/	.	16.ff\LL	(16.f\LL	et
!	!	!	!	!	!LO:N:vis=16	!
.	.	.	.	32gg\JJk	32g\JJk)	.
8B-\	8b-/	.	.	4dd\	8.d\	Can-
8BB-/J	8B-/J	.	.	.	.	.
.	.	.	.	.	16d\	-ti-
!	!	!LO:PB:g=original	!	!	!	!
=53	=53	=53	=53	=53	=53	=53
16E-\LL	16e-/LL	16e-/LL	.	4ee-\	4e-\	-cis
16E-\	16e-/	16e-/	.	.	.	.
16E-\	16e-/	16e-/	.	.	.	.
16E-\	16e-/	16e-/	.	.	.	.
16E-\	16e-/	16e-/	.	8r	8r	.
16E-\JJ	16e-/JJ	16e-/JJ	.	.	.	.
!LO:LB:g=original	!	!	!	!	!	!
=54	=54	=54	=54	=54	=54	=54
16C/LL	16c/LL	16e-/LL	.	4.an/	8an\	Lau-
16C/	16c/	16e-/	.	.	.	.
16C/	16c/	16e-/	.	.	4a\	-da
16C/	16c/	16e-/	.	.	.	.
16C/	16c/	16e-/	.	.	.	.
16C/JJ	16c/JJ	16e-/JJ	.	.	.	.
=55	=55	=55	=55	=55	=55	=55
16BB-/LL	16B-/LL	16d/LL	.	16b-\LL	4.b-\	Du-
16BB-/	16B-/	16b-/	.	16b-\	.	.
16BB-/	16B-/	16b-/	.	16b-\	.	.
16BB-/	16B-/	16b-/	.	16b-\	.	.
16BB-/	16B-/	16b-/	.	16b-\	.	.
!	!LO:TX:b:t=Vert.	!	!	!	!	!
16BB-/JJ	16B-/JJ	16b-/JJ	.	16b-\JJ	.	.
!	!LO:PB:g=original	!	!	!	!	!
=56	=56	=56	=56	=56	=56	=56
16BB-/LL	16G/LL	16b-/LL	.	16cc\LL	4.cc\	-cem
16BB-/	16G/	16b-/	.	16cc\	.	.
16BB-/	16G/	16a-/	.	16cc\	.	.
16BB-/	16G/	16a-/	.	16cc\	.	.
16BB-/	16G/	16a-/	.	16cc\	.	.
16BB-/JJ	16G/JJ	16a-/JJ	.	16cc\JJ	.	.
=57	=57	=57	=57	=57	=57	=57
16BB-/LL	16B-/LL	16a-/LL	.	16dd\LL	4.dd\	et
16BB-/	16B-/	16a-/	.	16dd\	.	.
16BB-/	16B-/	16a-/	.	16dd\	.	.
16BB-/	16B-/	16a-/	.	16dd\	.	.
16BB-/	16B-/	16a-/	.	16dd\	.	.
16BB-/JJ	16B-/JJ	16a-/JJ	.	16dd\JJ	.	.
=58	=58	=58	=58	=58	=58	=58
16BB-/LL	16B-/LL	16g/LL	.	16ee-\LL	4.ee-\	Pa-
16BB-/	16B-/	16g/	.	16ee-\	.	.
16BB-/	16B-/	16g/	.	16ee-\	.	.
16BB-/	16B-/	16g/	.	16ee-\	.	.
16BB-/	16B-/	16g/	.	16ee-\	.	.
16BB-/JJ	16B-/JJ	16g/JJ	.	16ee-\JJ	.	.
!	!	!	!	!LO:LB:g=original	!	!
=59	=59	=59	=59	=59	=59	=59
16AAn/LL	16An/LL	16g-X/LL	.	16ee-\LL	4.g-X\	-sto-
16AA/	16A/	16g-/	.	16ee-\	.	.
16AA/	16A/	16g-/	.	16ee-\	.	.
16AA/	16A/	16g-/	.	16ee-\	.	.
16AA/	16A/	16g-/	.	16ee-\	.	.
16AA/JJ	16A/JJ	16g-/JJ	.	16ee-\JJ	.	.
=60	=60	=60	=60	=60	=60	=60
!	!	!	!	!	!LO:N:vis=4.	!
4BB-/	4B-/	4f/	.	4dd\	4f\;;	-rem
!	!	!	!	!	!LO:TX:t=P:problem="verte." podkreślone	!
!	!	!	!	!	!LO:TX:b:t=Verte.	!
.	.	.	.	.	qq8f	.
8r	8r	8r	.	8r	8r	.
!	!	!	!	!	!LO:PB:g=original	!
=61	=61	=61	=61	=61	=61	=61
8BB-/L	8B-/L	8d/L	.	8b-\	8B-/	In
8C/	8c/	8e-/	.	4aa-\	4a-X\	hy-
8D/J	8d/J	8f/J	.	.	.	.
=62	=62	=62	=62	=62	=62	=62
8E-\L	8e-/L	8b-/L	.	8gg\L	(8g\L	-mnis
8F\	8f/	8a-X/J	.	8ff\	8f\)	.
!	!	!LO:LB:g=original	!	!	!	!
8G\J	8g/J	8g/	.	8ee-\J	8e-\J|	et
=63	=63	=63	=63	=63	=63	=63
!LO:TX:t=P:problem=mixed beam	!	!	!	!	!	!
8A-\L	8a-/L	4.f/	.	16.ff\LL	16.f\LL	Can-
.	.	.	.	32gg\JJk	32g\JJk	.
8B-\	8b-/	.	.	4dd\	8.d\	.
8BB-/J	8B-/J	.	.	.	.	.
.	.	.	.	.	16d\	-ti-
!LO:PB:g=original	!	!	!	!	!	!
=64	=64	=64	=64	=64	=64	=64
16E-\LL	16e-/LL	16e-/LL	.	16ee-\LL	4e-\	-cis
16E-\	16f/	16a-/	.	16a-\	.	.
16E-\	16e-/	16g/	.	16g\	.	.
16E-\	16f/	16a-/	.	16a-\	.	.
16E-\	16g/	16b-/	.	16b-\	8r	.
16E-\JJ	16f/JJ	16a-/JJ	.	16a-\JJ	.	.
=65	=65	=65	=65	=65	=65	=65
!	!	!	!	!	!LO:N:vis=00	!
16C/LL	16e-/LL	16g\LL	.	16g\LL	1.r	.
16C/	16cc/	16ee-\	.	16ee-\	.	.
16C/	16b-/	16dd\	.	16dd\	.	.
16C/	16a-/	16cc\	.	16cc\	.	.
16C/	16g/	16b-\	.	16b-\	.	.
16C/JJ	16f/JJ	16a-\JJ	.	16a-\JJ	.	.
!	!LO:LB:g=original	!	!	!	!	!
=66	=66	=66	=66	=66	=66	=66
8E-\L	8e-/L	16.g/LL	.	16.bb-\LL	.	.
.	.	32a-/JJk	.	32ccc\JJk	.	.
8F\	8e-/	4f/	.	4aa-\	.	.
8BB-\J	8d/J	.	.	.	.	.
=67	=67	=67	=67	=67	=67	=67
8E-\L	16e-/LL	16g/LL	.	4gg\	.	.
.	16e-/	16g/	.	.	.	.
8E-\	16d/	16f/	.	.	.	.
.	16e-/	16g/	.	.	.	.
!	!	!	!	!LO:TX:b:t=Cito Vert	!	!
8AA-\J	16f/	16a-/	.	8r	.	.
.	16e-/JJ	16g/JJ	.	.	.	.
!	!	!	!	!LO:PB:g=original	!	!
=68	=68	=68	=68	=68	=68	=68
8BB-/L	16.d/LL	16.f/LL	.	16.ff\LL	.	.
.	32e-/JJk	32b-/JJk	.	32gg\JJk	.	.
8C/	4c/	8b-/L	.	4ee-\	.	.
8FF/J	.	8an/J	.	.	.	.
=69	=69	=69	=69	=69	=69	=69
!LO:TX:t=P:problem=mixed beam	!	!	!	!LO:TX:t=P:problem=mixed beam	!LO:N:vis=00	!
16BB-/LL	16B-/LL	16b-/LL	.	16dd\LL	1.r	.
16B-\	16B-/	16d/	.	16d/	.	.
16A-X\	16c/	16e-/	.	16e-/	.	.
16G\	16d/	16f/	.	16f/	.	.
16F\	16e-/	16g/	.	16g/	.	.
16E-\JJ	16f/JJ	16a-/JJ	.	16a-/JJ	.	.
=70	=70	=70	=70	=70	=70	=70
16G\LL	16g/LL	16b-\LL	.	16b-/LL	.	.
16G\	16e-/	16g\	.	16g/	.	.
16F\	16f/	16a-\	.	16a-/	.	.
16F\	16g/	16b-\	.	16b-/	.	.
16G\	16a-/	16cc\	.	16cc/	.	.
16G\JJ	16b-/JJ	16dd\JJ	.	16dd/JJ	.	.
=71	=71	=71	=71	=71	=71	=71
!LO:TX:t=P:problem=mixed beam	!	!	!	!	!	!
8E-\L	8B-/	16.ee-\LL	.	16.gg\LL	.	.
.	.	32ff\JJk	.	32aa-\JJk	.	.
8B-\	4B-/	4dd\	.	4ff\	.	.
8BB-\J	.	.	.	.	.	.
=72	=72	=72	=72	=72	=72	=72
4.E-\;;	4G/	16.ee-\LL	.	16.ee-\LL	.	.
.	.	32b-\JJk	.	32b-\JJk	.	.
!	!	!LO:LB:g=original	!	!	!	!
.	.	8e-/	.	8e-/	.	.
.	8r	8r	.	8ryy	.	.
=73||	=73||;;	=73||;;	=73||	=73||;;	=73||	=73||
16C\LL	16c/LL	16c/LL	.	16e-/LL	4g\	Quan-
16C\	16c/	16d/	.	16f/	.	.
16C\	16c/	16c/	.	16e-/	.	.
16C\	16c/	16d/	.	16f/	.	.
16C\	16c/	16e-/	.	16g/	8cc\	-tum
16C\JJ	16c/JJ	16d/JJ	.	16f/JJ	.	.
!LO:LB:g=original	!	!	!	!	!	!
=74	=74	=74	=74	=74	=74	=74
!	!	!	!	!	!LO:TX:t=P:problem=takt 74 dopisany nad pięciolinią	!
16C/LL	16c/LL	16c/LL	.	16e-/LL	8g\	po-
16C/	16c/	16a-/	.	16cc/	.	.
16C/	16c/	16g/	.	16b-/	4g\	-tes
16C/	16c/	16f/	.	16a-/	.	.
16C/	16c/	16e-/	.	16g/	.	.
16C/JJ	16c/JJ	16d/JJ	.	16f/JJ	.	.
=75	=75	=75	=75	=75	=75	=75
8C/L	8c/L	8c/L	.	16.e-/LL	16.g\LL	tan-
.	.	.	.	32f/JJk	32a-\JJk	.
8D/	8d/	8c/	.	4d/	8.f\	.
8GG/J	8G/J	8Bn/J	.	.	.	.
.	.	.	.	.	16f\	-tum
!	!LO:LB:g=original	!	!	!	!LO:LB:g=original	!
=76	=76	=76	=76	=76	=76	=76
16C/LL	16c/LL	16c/LL	.	4c/	16.e-\LL	au-
16C/	16c/	16c/	.	.	.	.
.	.	.	.	.	32d\JJk	.
16C/	16c/	16c/	.	.	8c\	-de
16C/	16c/	16e-/	.	.	.	.
16C/	16c/	16e-/	.	8r	8r	.
16C/JJ	16c/JJ	16e-/JJ	.	.	.	.
!	!	!	!	!LO:LB:g=original	!	!
=77	=77	=77	=77	=77	=77	=77
16C/LL	16c/LL	16e-/LL	.	4.aa-X\	8a-X\	qui
16C/	16c/	16e-/	.	.	.	.
16C/	16c/	16e-/	.	.	4a-\	.
16C/	16c/	16e-/	.	.	.	.
16C/	16c/	16e-/	.	.	.	.
16C/JJ	16c/JJ	16e-/JJ	.	.	.	.
=78	=78	=78	=78	=78	=78	=78
16BB-/LL	16c/LL	16d/LL	.	8aa-\	16ddn\LL	ma-
16BB-/	16B-/	16d/	.	.	16b-\JJ	.
16BB-/	16B-/	16d/	.	4gg\	4g\	-jor
16BB-/	16B-/	16d/	.	.	.	.
16BB-/	16B-/	16d/	.	.	.	.
16BB-/JJ	16B-/JJ	16d/JJ	.	.	.	.
=79	=79	=79	=79	=79	=79	=79
16AA-/LL	16A-/LL	16c/LL	.	8gg\	16cc\LL	om-
16AA-/	16A-/	16c/	.	.	16a-\JJ	.
16AA-/	16A-/	16c/	.	4ff\	4f\	-ni
16AA-/	16A-/	16c/	.	.	.	.
16AA-/	16A-/	16c/	.	.	.	.
16AA-/JJ	16A-/JJ	16c/JJ	.	.	.	.
=80	=80	=80	=80	=80	=80	=80
16GG/LL	16G/LL	16B-/LL	.	8ff\	16b-\LL	Lau-
16GG/	16G/	16B-/	.	.	16g\JJ	.
16GG/	16G/	16B-/	.	4ee-\	4e-\	-de
16GG/	16G/	16B-/	.	.	.	.
16GG/	16G/	16B-/	.	.	.	.
16GG/JJ	16G/JJ	16B-/JJ	.	.	.	.
=81	=81	=81	=81	=81	=81	=81
!LO:TX:t=P:problem=mixed beam	!	!	!	!	!	!
8FF/L	8f/L	8aa-X\L	.	8aa-X\L	8a-\L	nec
8E-\	8f/	8gg\	.	8gg\	8g\J	.
8D\J	8e-/J	8ff\J	.	8ff\J	8f\	Lau-
!	!	!LO:LB:g=original	!	!	!	!
=82	=82	=82	=82	=82	=82	=82
8E-\L	8e-/L	4.gg\	.	4.gg\	4.g\	-da-
8D\	8d/	.	.	.	.	.
8C\J	8c/J	.	.	.	.	.
=83	=83	=83	=83	=83	=83	=83
4.BBn/	4.B-/	8gg\L	.	8gg\L	8g\L	.
.	.	8ff\	.	8ff\	8f\	.
.	.	8ee-\J	.	8ee-\J	8e-\J	.
!LO:LB:g=original	!	!	!	!	!LO:LB:g=original	!
=84	=84	=84	=84	=84	=84	=84
8BB-/L	8B-/L	8ff\L	.	8ff\L	(8f\L	.
8C/	8c/	8ee-\	.	8ee-\	8e-\)	.
8BB-/J	8B-/J	8dd\J	.	8dd\J	8d\J|	-re
=85	=85	=85	=85	=85	=85	=85
4C/	4c/	4ee-\	.	4ee-\	8.e-\	nec
.	.	.	.	.	16e-\	lau-
8r	8r	8r	.	8r	8cc\	-da-
=86	=86	=86	=86	=86	=86	=86
!LO:TX:t=P:problem=mixed beam	!	!	!	!	!	!
8C/L	8c/L	8e-/	.	8cc\	16.e-\LL	-re
.	.	.	.	.	32f\JJk	.
8G\	8g/	4d/	.	4bn\	8.d\	suf-
8GG/J	8G/J	.	.	.	.	.
.	.	.	.	.	16d\	-fi-
!	!LO:LB:g=original	!	!	!	!	!
=87	=87	=87	=87	=87	=87	=87
!LO:TX:a:t=Da Capo.	!	!	!	!	!	!
!LO:TX:a:t=87	!	!	!	!	!	!
4.C/	4c/	4c/	.	4cc\	8c\	-cis
.	.	.	.	.	8r	.
!	!LO:TX:a:t=Da Capo	!LO:TX:a:t=Da Capo.	!	!LO:TX:a:t=Da Capo	!LO:TX:a:t=Da Capo	!
.	8r	8r	.	8r	8r	.
=:|!	=:|!	=:|!	=:|!	=:|!	=:|!	=:|!
*-	*-	*-	*-	*-	*-	*-
!!!system-decoration: [(g1)][(g2)][(g3)]
!!!AIN: 1 alto 1 empty 3 violn
!!!ENC: Anna Matuszewska
!!!END: 2021-01-19
!!!ENC: Marcin Jachim
!!!END: 2020-12-11
!!!RDF**kern: | = vertical stroke
